img/icons/corp2/1.svg

<svg width="74" height="53" viewBox="0 0 74 53" fill="none" xmlns="http://www.w3.org/2000/svg">
<path d="M46.1409 42.2744C45.6312 42.2744 45.2489 42.4641 44.9304 42.8434C44.6118 43.2228 44.4844 43.7286 44.4844 44.424C44.4844 45.1195 44.6118 45.6253 44.9304 46.0046C45.2489 46.384 45.6312 46.5736 46.1409 46.5736C46.6506 46.5736 47.0329 46.384 47.3514 46.0046C47.67 45.6253 47.7974 45.1195 47.7974 44.424C47.7974 43.7286 47.67 43.2228 47.3514 42.8434C47.0966 42.4641 46.6506 42.2744 46.1409 42.2744Z" fill="#343434"/>
<path d="M68.1848 39.1135C65.7637 39.1135 63.6612 40.8205 63.2152 43.0966H54.5504C53.977 38.8606 50.3454 35.6362 45.9493 35.6362C43.7194 35.6362 41.6806 36.4581 40.0878 37.9122L35.6917 33.5498C36.9659 31.6531 37.7305 29.4403 37.7305 26.9745C37.7305 22.9914 35.6917 19.4509 32.6335 17.3013L35.628 10.157C37.9853 10.6628 40.4064 9.39832 41.362 7.12227C42.4451 4.53009 41.2346 1.55858 38.5587 0.483774C36.0102 -0.654254 33.0158 0.610222 31.9327 3.2024C31.0407 5.352 31.7415 7.81773 33.5255 9.20865L30.5947 16.1633C29.1293 15.531 27.5365 15.2149 25.88 15.2149C24.2872 15.2149 22.6944 15.531 21.2928 16.1L18.4257 9.14543C20.2097 7.75451 20.9742 5.352 20.0185 3.13917C18.9354 0.546998 15.941 -0.654254 13.3288 0.357326C10.7166 1.36891 9.50607 4.40365 10.5255 6.99582C11.4811 9.27188 13.9022 10.5364 16.2595 10.0306L19.1903 17.1116C16.0047 19.198 13.9659 22.8018 13.9659 26.8481C13.9659 28.1126 14.157 29.3138 14.5393 30.4518L9.1238 32.6647C8.6141 31.9692 7.84956 31.337 6.95759 31.0208C4.47283 30.0093 1.47837 31.2105 0.395264 33.8027C-0.687838 36.3949 0.522688 39.3664 3.19859 40.4412C5.81078 41.516 8.80524 40.3147 9.88834 37.6593C10.2706 36.711 10.398 35.6994 10.2069 34.751L15.6224 32.5382C17.6612 36.142 21.5476 38.6077 25.9437 38.6077C29.1931 38.6077 32.1238 37.28 34.29 35.1936L38.6861 39.5561C37.8579 40.8838 37.3482 42.4643 37.3482 44.1714C37.3482 48.9132 41.2346 52.7698 46.013 52.7698C50.4091 52.7698 53.977 49.5454 54.6141 45.3726H63.2789C63.7886 47.5855 65.8274 49.2925 68.2485 49.2925C71.0518 49.2925 73.3454 47.0165 73.3454 44.2346C73.2817 41.3895 70.9881 39.1135 68.1848 39.1135ZM35.4368 3.39207H36.1377V4.65654H37.4756V3.39207H38.1764V6.74293H37.4756V5.28878H36.1377V6.80615H35.4368V3.39207ZM16.7055 6.86937H16.0047V5.352H14.6667V6.86937H14.0296V3.51851H14.7304V4.78299H16.0684V3.51851H16.7692V6.86937H16.7055ZM6.51161 37.4697H5.81078V35.9523H4.47283V37.4697H3.772V34.1188H4.47283V35.3833H5.81078V34.1188H6.51161V37.4697ZM24.5421 28.9345C24.8606 29.3138 25.3066 29.5667 25.8163 29.5667C26.326 29.5667 26.772 29.377 27.0268 29.0609C27.1543 28.8712 27.2817 28.6183 27.4091 28.239H28.9382C28.8108 29.0609 28.4922 29.6931 27.9188 30.1989C27.4091 30.7047 26.7083 30.9576 25.8163 30.9576C24.7969 30.9576 23.9687 30.6415 23.3316 29.946C22.7581 29.2506 22.4396 28.3655 22.4396 27.1642C22.4396 25.8997 22.7582 24.8881 23.459 24.2559C24.0324 23.6869 24.7969 23.3708 25.6889 23.3708C26.8994 23.3708 27.7914 23.7501 28.3648 24.572C28.6834 25.0146 28.8745 25.4572 28.8745 25.8997H27.4091C27.2817 25.5204 27.218 25.2675 27.0268 25.141C26.772 24.8249 26.326 24.6985 25.8163 24.6985C25.2429 24.6985 24.8606 24.9514 24.5421 25.3939C24.2235 25.8365 24.0961 26.4687 24.0961 27.2906C24.0324 27.9229 24.2235 28.4919 24.5421 28.9345ZM48.1792 46.9532C47.7332 47.459 47.0324 47.6487 46.1404 47.6487C45.2485 47.6487 44.6113 47.3958 44.1016 46.9532C43.4645 46.3842 43.146 45.4991 43.146 44.4243C43.146 43.2863 43.4645 42.4643 44.1016 41.8953C44.6113 41.3895 45.2485 41.1367 46.1404 41.1367C47.0324 41.1367 47.6695 41.3895 48.1792 41.8321C48.8163 42.4011 49.1349 43.223 49.1349 44.3611C49.1349 45.4991 48.8163 46.321 48.1792 46.9532ZM69.459 45.8784H68.7582V44.3611H67.4202V45.8784H66.7194V42.5276H67.4202V43.792H68.7582V42.5276H69.459V45.8784Z" fill="#343434"/>
</svg>

<svg width="74" height="53" fill="none" xmlns="http://www.w3.org/2000/svg"><path d="M46.14 42.274c-.509 0-.891.19-1.21.57-.318.379-.446.885-.446 1.58 0 .696.128 1.201.446 1.58.319.38.701.57 1.21.57.51 0 .893-.19 1.211-.57.319-.379.446-.884.446-1.58 0-.695-.127-1.201-.446-1.58-.254-.38-.7-.57-1.21-.57z" fill="#343434"/><path d="M68.185 39.114c-2.421 0-4.524 1.707-4.97 3.983H54.55c-.573-4.236-4.205-7.46-8.6-7.46-2.23 0-4.27.821-5.862 2.275l-4.396-4.362c1.274-1.897 2.038-4.11 2.038-6.575 0-3.984-2.038-7.524-5.096-9.674l2.994-7.144c2.357.506 4.778-.759 5.734-3.035 1.083-2.592-.127-5.563-2.803-6.638-2.549-1.138-5.543.126-6.626 2.718-.892 2.15-.192 4.616 1.593 6.007l-2.931 6.954c-1.466-.632-3.058-.948-4.715-.948-1.593 0-3.186.316-4.587.885l-2.867-6.955c1.784-1.39 2.548-3.793 1.593-6.006C18.934.547 15.94-.654 13.328.357c-2.612 1.012-3.823 4.047-2.804 6.639.956 2.276 3.377 3.54 5.734 3.035l2.931 7.08c-3.185 2.087-5.224 5.69-5.224 9.737 0 1.265.191 2.466.573 3.604l-5.415 2.213c-.51-.696-1.274-1.328-2.166-1.644-2.485-1.012-5.48.19-6.563 2.782-1.083 2.592.128 5.563 2.804 6.638 2.612 1.075 5.606-.126 6.69-2.782.382-.948.509-1.96.318-2.908l5.415-2.213c2.04 3.604 5.926 6.07 10.322 6.07 3.25 0 6.18-1.328 8.346-3.414l4.396 4.362a8.707 8.707 0 0 0-1.338 4.615c0 4.742 3.887 8.599 8.665 8.599 4.396 0 7.964-3.225 8.601-7.397h8.665c.51 2.213 2.548 3.92 4.97 3.92 2.803 0 5.096-2.276 5.096-5.058-.063-2.846-2.357-5.121-5.16-5.121zM35.437 3.392h.7v1.265h1.339V3.392h.7v3.35h-.7V5.29h-1.338v1.517h-.701V3.392zM16.706 6.87h-.701V5.352h-1.338v1.517h-.637V3.52h.7v1.264h1.338V3.519h.701v3.35h-.063zM6.511 37.47H5.81v-1.517H4.473v1.518h-.701V34.12h.7v1.264h1.339V34.12h.7v3.35zm18.03-8.535c.319.38.765.633 1.274.633.51 0 .956-.19 1.21-.506.128-.19.256-.443.383-.822h1.53c-.128.822-.447 1.454-1.02 1.96-.51.506-1.21.759-2.103.759-1.02 0-1.847-.316-2.484-1.012-.574-.695-.892-1.58-.892-2.782 0-1.264.318-2.276 1.019-2.908.573-.57 1.338-.885 2.23-.885 1.21 0 2.102.38 2.676 1.201.318.443.51.885.51 1.328h-1.466c-.127-.38-.191-.633-.382-.759-.255-.316-.701-.442-1.21-.442-.574 0-.956.252-1.275.695-.319.443-.446 1.075-.446 1.897a2.386 2.386 0 0 0 .446 1.643zm23.637 18.02c-.446.505-1.147.695-2.039.695-.892 0-1.529-.253-2.038-.696-.637-.569-.956-1.454-.956-2.529 0-1.138.319-1.96.956-2.529.51-.506 1.147-.758 2.038-.758.892 0 1.53.252 2.04.695.636.57.955 1.391.955 2.53 0 1.137-.319 1.959-.956 2.591zm21.28-1.076h-.7v-1.517H67.42v1.517h-.7v-3.35h.7v1.264h1.338v-1.264h.701v3.35z" fill="#343434"/></svg>
